icons/behance.svg

<svg width="24" height="24" viewBox="0 0 24 24" fill="none" xmlns="http://www.w3.org/2000/svg">
<path fill-rule="evenodd" clip-rule="evenodd" d="M11.5 8.50049C11.5 9.39649 11.163 10.2145 10.609 10.8335C11.3866 11.3866 11.9682 12.1725 12.2699 13.0778C12.5716 13.9831 12.5777 14.9609 12.2873 15.8699C11.9969 16.7788 11.4251 17.572 10.6545 18.1347C9.88382 18.6975 8.95424 19.0006 8 19.0005H3.5C3.10218 19.0005 2.72064 18.8425 2.43934 18.5611C2.15804 18.2798 2 17.8983 2 17.5005V5.50049C2 5.10266 2.15804 4.72113 2.43934 4.43983C2.72064 4.15852 3.10218 4.00049 3.5 4.00049H7.5C8.56087 4.00049 9.57828 4.42192 10.3284 5.17206C11.0786 5.92221 11.5 6.93962 11.5 8.00049V8.50049ZM4 10.0005V6.00049H7.5C8.03043 6.00049 8.53914 6.2112 8.91421 6.58627C9.28929 6.96135 9.5 7.47006 9.5 8.00049V8.50049C9.5 8.89831 9.34196 9.27984 9.06066 9.56115C8.77936 9.84245 8.39782 10.0005 8 10.0005H4ZM4 12.0005H8C8.66304 12.0005 9.29893 12.2639 9.76777 12.7327C10.2366 13.2016 10.5 13.8374 10.5 14.5005C10.5 15.1635 10.2366 15.7994 9.76777 16.2683C9.29893 16.7371 8.66304 17.0005 8 17.0005H4V12.0005Z" fill="black"/>
<path d="M15 6.00049C15 5.73527 15.1054 5.48092 15.2929 5.29338C15.4804 5.10585 15.7348 5.00049 16 5.00049H19.5C19.7652 5.00049 20.0196 5.10585 20.2071 5.29338C20.3946 5.48092 20.5 5.73527 20.5 6.00049C20.5 6.2657 20.3946 6.52006 20.2071 6.70759C20.0196 6.89513 19.7652 7.00049 19.5 7.00049H16C15.7348 7.00049 15.4804 6.89513 15.2929 6.70759C15.1054 6.52006 15 6.2657 15 6.00049Z" fill="black"/>
<path fill-rule="evenodd" clip-rule="evenodd" d="M12.5 13.0005C12.5 10.1825 14.909 8.00049 17.75 8.00049C20.591 8.00049 23 10.1825 23 13.0005C23 13.2657 22.8946 13.5201 22.7071 13.7076C22.5196 13.8951 22.2652 14.0005 22 14.0005H14.5C14.5 15.6005 15.897 17.0005 17.75 17.0005C18.859 17.0005 19.584 16.6865 20.015 16.4095C20.2271 16.2801 20.4163 16.1166 20.575 15.9255C20.7278 15.7124 20.9582 15.5679 21.2165 15.523C21.4749 15.4782 21.7405 15.5366 21.9562 15.6856C22.1719 15.8347 22.3204 16.0626 22.3698 16.3201C22.4191 16.5776 22.3653 16.8442 22.22 17.0625C21.886 17.4605 21.539 17.8065 21.097 18.0905C20.362 18.5645 19.265 19.0005 17.75 19.0005C14.909 19.0005 12.5 16.8185 12.5 14.0005V13.0005ZM17.75 10.0005C19.201 10.0005 20.373 10.8595 20.813 12.0005H14.687C15.127 10.8595 16.299 10.0005 17.75 10.0005Z" fill="black"/>
</svg>

<svg
  width="24"
  height="24"
  viewBox="0 0 24 24"
  xmlns="http://www.w3.org/2000/svg"
>
  <path
    fill-rule="evenodd"
    clip-rule="evenodd"
    d="M11.5 8.5c0 .896-.337 1.714-.891 2.334A4.5 4.5 0 0 1 8 19H3.5A1.5 1.5 0 0 1 2 17.5v-12A1.5 1.5 0 0 1 3.5 4h4a4 4 0 0 1 4 4v.5zM4 10V6h3.5a2 2 0 0 1 2 2v.5A1.5 1.5 0 0 1 8 10H4zm0 2h4a2.5 2.5 0 0 1 0 5H4v-5z"
  />
  <path d="M15 6a1 1 0 0 1 1-1h3.5a1 1 0 1 1 0 2H16a1 1 0 0 1-1-1z" />
  <path
    fill-rule="evenodd"
    clip-rule="evenodd"
    d="M12.5 13c0-2.818 2.409-5 5.25-5S23 10.182 23 13a1 1 0 0 1-1 1h-7.5c0 1.6 1.397 3 3.25 3 1.109 0 1.834-.314 2.265-.59.212-.13.401-.293.56-.485a1 1 0 0 1 1.645 1.137c-.334.398-.681.744-1.123 1.028-.735.474-1.832.91-3.347.91-2.841 0-5.25-2.181-5.25-5v-1zm5.25-3c1.451 0 2.623.86 3.063 2h-6.126c.44-1.14 1.612-2 3.063-2z"
  />
</svg>
